X: 40
M:C|
L:1/8
K:Bb
(vB,>.D)(uE>.B) "Segue"d>fb>f|d>fB>d F>BD>F|\
|:uf2|(va>.g)(ue>.c) "Segue"A>cf>a|b>fd>B F>Bd>f|\
g>ec>g f>dB>f|e>cd>B A>FA>c|
a>ge>c A>cf>a|b>fd>B F>Bd>f|\
g>ab>g f>bA>c|1 B2d2B2 :|2 B2d2B2 z|]


